assets/svg/palette.svg

<svg xmlns="http://www.w3.org/2000/svg" xml:space="preserve" style="fill-rule:evenodd;clip-rule:evenodd;stroke-linejoin:round;stroke-miterlimit:2" viewBox="0 0 24 24"><path d="M12 2.979c4.982 0 9.021 3.59 9.021 8.021 0 2.755-2.266 5.021-5.021 5.021h-1.77c-.811 0-1.479.668-1.479 1.479 0 .375.148.72.375.986.243.264.395.619.395 1.014 0 .834-.687 1.521-1.521 1.521-4.949 0-9.021-4.072-9.021-9.021 0-4.949 4.072-9.021 9.021-9.021Zm0 1.037C7.62 4.016 4.016 7.62 4.016 12S7.62 19.984 12 19.984a.486.486 0 0 0 .484-.484.46.46 0 0 0-.147-.341 2.567 2.567 0 0 1-.623-1.659 2.528 2.528 0 0 1 2.516-2.516H16c2.186 0 3.984-1.798 3.984-3.984 0-3.894-3.606-6.984-7.984-6.984Z" style="fill-rule:nonzero"/><circle cx="8.397" cy="9.878" r="1.434" transform="translate(-1.355 1.08)"/><circle cx="8.397" cy="9.878" r="1.434" transform="translate(5.947 -2.646)"/><circle cx="8.397" cy="9.878" r="1.434" transform="translate(8.74 .937)"/><circle cx="8.397" cy="9.878" r="1.434" transform="translate(1.249 -2.646)"/></svg>

<?xml version="1.0" encoding="UTF-8" standalone="no"?>
<!DOCTYPE svg PUBLIC "-//W3C//DTD SVG 1.1//EN" "http://www.w3.org/Graphics/SVG/1.1/DTD/svg11.dtd">
<svg width="100%" height="100%" viewBox="0 0 24 24" version="1.1" xmlns="http://www.w3.org/2000/svg" xmlns:xlink="http://www.w3.org/1999/xlink" xml:space="preserve" xmlns:serif="http://www.serif.com/" style="fill-rule:evenodd;clip-rule:evenodd;stroke-linejoin:round;stroke-miterlimit:2;">
    <path d="M12,2.979C16.982,2.979 21.021,6.569 21.021,11C21.021,13.755 18.755,16.021 16,16.021L14.23,16.021C13.419,16.021 12.751,16.689 12.751,17.5C12.751,17.875 12.899,18.22 13.126,18.486C13.369,18.75 13.521,19.105 13.521,19.5C13.521,20.334 12.834,21.021 12,21.021C7.051,21.021 2.979,16.949 2.979,12C2.979,7.051 7.051,2.979 12,2.979ZM12,4.016C7.62,4.016 4.016,7.62 4.016,12C4.016,16.38 7.62,19.984 12,19.984C12.266,19.984 12.484,19.766 12.484,19.5C12.484,19.379 12.438,19.27 12.364,19.189C12.354,19.179 12.345,19.169 12.337,19.159C11.956,18.712 11.714,18.129 11.714,17.5C11.714,16.12 12.85,14.984 14.23,14.984L16,14.984C18.186,14.984 19.984,13.186 19.984,11C19.984,7.106 16.378,4.016 12,4.016Z" style="fill-rule:nonzero;"/>
    <g transform="matrix(1,0,0,1,-1.3545,1.07937)">
        <circle cx="8.397" cy="9.878" r="1.434"/>
    </g>
    <g transform="matrix(1,0,0,1,5.94709,-2.6455)">
        <circle cx="8.397" cy="9.878" r="1.434"/>
    </g>
    <g transform="matrix(1,0,0,1,8.74074,0.936508)">
        <circle cx="8.397" cy="9.878" r="1.434"/>
    </g>
    <g transform="matrix(1,0,0,1,1.24868,-2.6455)">
        <circle cx="8.397" cy="9.878" r="1.434"/>
    </g>
</svg>
